X: 25648
T: Martin Riley's
R: reel
M: 4/4
K: Gmajor
|:GBdB cEGE|DFAF G3z|cdeg dBGB|AcBG AGEF|
GBdB cEGE|DFAF G3z|cdeg dBGB|A2GA BGG2:|
|:B3d egdB|G2BG AGEF|G2DG B2GB|cdef gedc|
B3d egdB|G2BG AEE2|GBDG BGBc|dBAc BGG2:|

